X: 34867
T: Robbie Tamson's Smiddy
R: reel
M: 4/4
K: Edorian
B,<EE>D B,2 B,>A,|D>DF>D F<A z B|G>EF>^D E>E B,E/G/|B>AG>F F/ E z/ E<D|
B,<EE>D B,>A,D>D|F>DF>D F<A z B|G>EF>^D E>E B,G/A/|B>AG>F F/ E z/ E<D|
B,<EE>F E>DB,>A,|D2 F>D D<A z B|G>EF>^D E<E B,G/A/|B>AG<F F<E z2||

